X: 33994
T: Reel à Toto
R: reel
M: 4/4
K: Gmajor
K:G
|:ABB AGB d2|ded BAB G2|ABB AGB d2|ded BAG A2|
BAB AGB d2|ded BAB G2|ABB AGB g2|g2(3fgf efed|BAGB A4:|
K:D
|:e2 Ae eede|fedf edc#A|B2 GB d2Bd|g2(3fgf efed|
e2 Ae eede|fedf edc#A|B2 GB d2Bd|g2(3fgf efed|BAGB A4:|

